assets/img/braze_icons/line-chart-up-04.svg

<svg fill="none" height="24" viewBox="0 0 24 24" width="24" xmlns="http://www.w3.org/2000/svg"><g fill="#801ed7"><path d="m6.16146 2h11.67704c.5272-.00002.982-.00003 1.3565.03057.3954.0323.7886.10362 1.167.29641.5645.28762 1.0234.74656 1.311 1.31105.1928.37838.2641.7716.2964 1.16694.0306.37457.0306.82932.0306 1.35645v.50631c0 .1511 0 .22665-.0203.29565-.0179.0611-.0474.11821-.0868.16826-.0444.05652-.106.10032-.2291.18792l-7.5547 5.37544-2.9381-2.9381c-.0719-.072-.1601-.16024-.2446-.23289-.0998-.08576-.2463-.19668-.4467-.27307-.2641-.10069-.55124-.12472-.82838-.06932-.21028.04203-.37322.12705-.48586.19503-.09543.0576-.19703.12995-.27993.18899l-5.62173 4.00006c-.40849.2907-.61273.436-.78296.4295-.14822-.0057-.28626-.0769-.37682-.1944-.10402-.1349-.10402-.3856-.10402-.8869v-6.75246c-.00002-.52714-.00003-.9819.03057-1.35647.0323-.39534.10362-.78856.29641-1.16694.28762-.56449.74656-1.02343 1.31105-1.31105.37838-.19279.7716-.26411 1.16694-.29641.37457-.0306.82935-.03059 1.35649-.03057z"/><path d="m2 17.3322c0-.1511 0-.2267.02027-.2957.01795-.0611.0474-.1182.08678-.1682.04448-.0565.10603-.1003.22915-.1879l7.55452-5.3754 2.93808 2.9381c.072.072.1601.1603.2447.2329.0997.0858.2463.1967.4467.2731.264.1007.5512.1247.8283.0693.2103-.042.3732-.127.4859-.195.0954-.0576.197-.1299.2799-.189l5.6219-4.0002c.4085-.2906.6127-.43597.783-.4294.1482.0056.2862.0768.3768.1943.104.1349.104.3856.104.8869v6.7525c0 .5272 0 .982-.0306 1.3565-.0323.3954-.1036.7886-.2964 1.167-.2876.5645-.7465 1.0234-1.311 1.311-.3784.1928-.7716.2641-1.167.2964-.3745.0306-.8293.0306-1.3564.0306h-11.67717c-.52714 0-.98189 0-1.35646-.0306-.39534-.0323-.78856-.1036-1.16694-.2964-.56449-.2876-1.02343-.7465-1.31105-1.311-.19279-.3784-.26411-.7716-.29641-1.167-.0306-.3745-.03059-.8293-.03057-1.3564z"/></g></svg>

<svg width="24" height="24" viewBox="0 0 24 24" fill="none" xmlns="http://www.w3.org/2000/svg">
<path d="M6.16146 2H17.8385C18.3657 1.99998 18.8205 1.99997 19.195 2.03057C19.5904 2.06287 19.9836 2.13419 20.362 2.32698C20.9265 2.6146 21.3854 3.07354 21.673 3.63803C21.8658 4.01641 21.9371 4.40963 21.9694 4.80497C22 5.17954 22 5.63429 22 6.16142V6.66773C22 6.81883 22 6.89438 21.9797 6.96338C21.9618 7.02448 21.9323 7.08159 21.8929 7.13164C21.8485 7.18816 21.7869 7.23196 21.6638 7.31956L14.1091 12.695L11.171 9.7569C11.0991 9.6849 11.0109 9.59666 10.9264 9.52401C10.8266 9.43825 10.6801 9.32733 10.4797 9.25094C10.2156 9.15025 9.92846 9.12622 9.65132 9.18162C9.44104 9.22365 9.2781 9.30867 9.16546 9.37665C9.07003 9.43425 8.96843 9.5066 8.88553 9.56564L3.2638 13.5657C2.85531 13.8564 2.65107 14.0017 2.48084 13.9952C2.33262 13.9895 2.19458 13.9183 2.10402 13.8008C2 13.6659 2 13.4152 2 12.9139V6.16144C1.99998 5.6343 1.99997 5.17954 2.03057 4.80497C2.06287 4.40963 2.13419 4.01641 2.32698 3.63803C2.6146 3.07354 3.07354 2.6146 3.63803 2.32698C4.01641 2.13419 4.40963 2.06287 4.80497 2.03057C5.17954 1.99997 5.63432 1.99998 6.16146 2Z" fill="#801ED7"/>
<path d="M2 17.3322C2 17.1811 2 17.1055 2.02027 17.0365C2.03822 16.9754 2.06767 16.9183 2.10705 16.8683C2.15153 16.8118 2.21308 16.768 2.3362 16.6804L9.89072 11.305L12.8288 14.2431C12.9008 14.3151 12.9889 14.4034 13.0735 14.476C13.1732 14.5618 13.3198 14.6727 13.5202 14.7491C13.7842 14.8498 14.0714 14.8738 14.3485 14.8184C14.5588 14.7764 14.7217 14.6914 14.8344 14.6234C14.9298 14.5658 15.0314 14.4935 15.1143 14.4344L20.7362 10.4342C21.1447 10.1436 21.3489 9.99823 21.5192 10.0048C21.6674 10.0104 21.8054 10.0816 21.896 10.1991C22 10.334 22 10.5847 22 11.086V17.8385C22 18.3657 22 18.8205 21.9694 19.195C21.9371 19.5904 21.8658 19.9836 21.673 20.362C21.3854 20.9265 20.9265 21.3854 20.362 21.673C19.9836 21.8658 19.5904 21.9371 19.195 21.9694C18.8205 22 18.3657 22 17.8386 22H6.16143C5.63429 22 5.17954 22 4.80497 21.9694C4.40963 21.9371 4.01641 21.8658 3.63803 21.673C3.07354 21.3854 2.6146 20.9265 2.32698 20.362C2.13419 19.9836 2.06287 19.5904 2.03057 19.195C1.99997 18.8205 1.99998 18.3657 2 17.8386V17.3322Z" fill="#801ED7"/>
</svg>
